X: 1
T: Peg O' My Heart
C: words: Alfred Bryan
C: music: Fred Fisher 1912
M: 4/4
L: 1/8
K: C
G2 "G7"_G2F2 ||\
"C"EGAB- B4 | z2A2 G2E2 | "D7"^FAce- e4 | z2d2 c2A2 |
w: | Peg O' My Heart* I love you; Don't let us part* I love you;
"G7"AGdA- A4 | AGdA- A4 | "C"eBdc EG"Cdim"BA | "Dm"G^GBA "G7"=G_GFD |
w: I al-ways knew* it would be you* Since I heard your lilt-ing laugh-ter It's your I-rish heart I'm af-ter
"C"EGAB- B4 | z2A2 G2E2 | "D7"^FAce- e4 | z2d2 c2A2 |
w: Peg o' my heart* your glan-ces make my heart say* How's Chan-ces
"G7"AGdA- A4 | AGdA- AGe2 | "C"c4- "F"c4- | "C"c2 |]
w: Come be my own,* come make your home* in my heart.
